!!!SOCIAL_FUNCTION:	songs with hunting dance
!!!PDT:	1956
!!!OTL: No_39_Cow_Creek_Hunting_Dance_Song_(f).krn
!!!LANG: Non-Tone
!!!LING_GROUP: Muskogean
!!!REG: Florida
**kern
*staff1
=1-
*clefF4
*k[f#c#g#d#]
*M3/4
2r
12B\L
12B\
12B\J
=2
4.B\
8A\
16A\LL
16F#\JJ
16r
16B\
=3||
*M2/4
16B\LK
8A\
16F#\Jk
4F#\
=4||
*M3/4
16E\LK
[8.E\J
8.E\L]
16E\Jk
4E\
=5
8.B\L
16A\Jk
8F#\L
8B\J
16B\LK
8.A\J
=6
16E\LL
16E\J
[8E\J
8.E\L]
16B\Jk
4F#\
=7||
*M2/4
(2E\
=8||
*M3/4
4BB/)
4BB/
8BB/
8r
=9||
*M2/4
2E\
=10
4E\
12B\L
12B\
12B\J
=11||
*M3/4
4..B\
16A\
16A\LL
16F#\JJ
16r
16B\
=12||
*M2/4
16B\LK
8A\
16F#\Jk
4F#\
=13||
*M3/4
16E\LL
16E\J
[8E\J
8.E\L]
16B\Jk
4F#\
=14||
*M2/4
2E\
=15||
*M3/4
4BB/
4BB/
8BB/
8r
=16
2E\
4E\
=17
*M2/4
(2B\
=18
8B\L)
16E\Jk
16r
4B\
*-
